Numix-GalliumOS/64/devices/camera-web.svg

<?xml version="1.0" encoding="UTF-8" standalone="yes"?>
<svg xmlns="http://www.w3.org/2000/svg" xmlns:xlink="http://www.w3.org/1999/xlink" width="64px" height="64px" viewBox="0 0 48 48" version="1.1">
  <g id="surface1">
    <path style=" stroke:none;fill-rule:nonzero;fill:rgb(34.509804%,43.137255%,45.882353%);fill-opacity:1;" d="M 38.25 18.75 C 38.25 26.621094 31.871094 33 24 33 C 16.128906 33 9.75 26.621094 9.75 18.75 C 9.75 10.878906 16.128906 4.5 24 4.5 C 31.871094 4.5 38.25 10.878906 38.25 18.75 Z M 38.25 18.75 "/>
    <path style=" stroke:none;fill-rule:nonzero;fill:rgb(2.745098%,21.176471%,25.882353%);fill-opacity:1;" d="M 19.5 34.5 L 28.5 34.5 L 28.5 39 L 19.5 39 Z M 19.5 34.5 "/>
    <path style=" stroke:none;fill-rule:nonzero;fill:rgb(34.509804%,43.137255%,45.882353%);fill-opacity:1;" d="M 12 40.5 L 36 40.5 L 36 43.5 L 12 43.5 Z M 12 40.5 "/>
    <path style=" stroke:none;fill-rule:nonzero;fill:rgb(2.745098%,21.176471%,25.882353%);fill-opacity:1;" d="M 33.75 18.75 C 33.75 24.136719 29.386719 28.5 24 28.5 C 18.613281 28.5 14.25 24.136719 14.25 18.75 C 14.25 13.363281 18.613281 9 24 9 C 29.386719 9 33.75 13.363281 33.75 18.75 Z M 33.75 18.75 "/>
    <path style=" stroke:none;fill-rule:nonzero;fill:rgb(93.333333%,90.980392%,83.529412%);fill-opacity:1;" d="M 31.125 18.75 C 31.125 22.683594 27.933594 25.875 24 25.875 C 20.066406 25.875 16.875 22.683594 16.875 18.75 C 16.875 14.816406 20.066406 11.625 24 11.625 C 27.933594 11.625 31.125 14.816406 31.125 18.75 Z M 31.125 18.75 "/>
    <path style=" stroke:none;fill-rule:nonzero;fill:rgb(99.215686%,96.470588%,89.019608%);fill-opacity:0.282353;" d="M 31.5 6.652344 L 31.5 30.855469 C 33.316406 29.726562 34.851562 28.207031 36 26.40625 L 36 11.066406 C 34.847656 9.277344 33.308594 7.769531 31.5 6.652344 Z M 31.5 6.652344 "/>
    <path style=" stroke:none;fill-rule:nonzero;fill:rgb(46.27451%,55.686275%,61.960784%);fill-opacity:0.690196;" d="M 28.527344 13.257812 C 29.484375 14.46875 30.046875 16.011719 30.046875 17.671875 C 30.046875 21.609375 26.859375 24.796875 22.921875 24.796875 C 21.261719 24.796875 19.71875 24.234375 18.507812 23.277344 C 19.816406 24.859375 21.785156 25.875 24 25.875 C 27.933594 25.875 31.125 22.683594 31.125 18.75 C 31.125 16.535156 30.109375 14.566406 28.527344 13.257812 Z M 28.527344 13.257812 "/>
  </g>
</svg>

<svg xmlns="http://www.w3.org/2000/svg" width="64" height="64" viewBox="0 0 48 48">
 <g>
  <path d="m 38.25 18.75 c 0 7.871 -6.379 14.25 -14.25 14.25 c -7.871 0 -14.25 -6.379 -14.25 -14.25 c 0 -7.871 6.379 -14.25 14.25 -14.25 c 7.871 0 14.25 6.379 14.25 14.25 m 0 0" style="fill:#586e75;fill-opacity:1;stroke:none;fill-rule:nonzero"/>
  <path d="m 19.5 34.5 l 9 0 l 0 4.5 l -9 0 m 0 -4.5" style="fill:#063642;fill-opacity:1;stroke:none;fill-rule:nonzero"/>
  <path d="m 12 40.5 l 24 0 l 0 3 l -24 0 m 0 -3" style="fill:#586e75;fill-opacity:1;stroke:none;fill-rule:nonzero"/>
  <path d="m 33.75 18.75 c 0 5.387 -4.363 9.75 -9.75 9.75 c -5.387 0 -9.75 -4.363 -9.75 -9.75 c 0 -5.387 4.363 -9.75 9.75 -9.75 c 5.387 0 9.75 4.363 9.75 9.75 m 0 0" style="fill:#063642;fill-opacity:1;stroke:none;fill-rule:nonzero"/>
  <path d="m 31.13 18.75 c 0 3.934 -3.191 7.125 -7.125 7.125 c -3.934 0 -7.125 -3.191 -7.125 -7.125 c 0 -3.934 3.191 -7.125 7.125 -7.125 c 3.934 0 7.125 3.191 7.125 7.125 m 0 0" style="fill:#ede7d5;fill-opacity:1;stroke:none;fill-rule:nonzero"/>
  <path d="m 31.5 6.652 l 0 24.2 c 1.816 -1.129 3.352 -2.648 4.5 -4.449 l 0 -15.34 c -1.152 -1.789 -2.691 -3.297 -4.5 -4.414 m 0 0" style="fill:#fcf5e3;fill-opacity:0.282;stroke:none;fill-rule:nonzero"/>
  <path d="m 28.527 13.258 c 0.957 1.211 1.52 2.754 1.52 4.414 c 0 3.938 -3.188 7.125 -7.125 7.125 c -1.66 0 -3.203 -0.563 -4.414 -1.52 c 1.309 1.582 3.277 2.598 5.492 2.598 c 3.934 0 7.125 -3.191 7.125 -7.125 c 0 -2.215 -1.016 -4.184 -2.598 -5.492 m 0 0" style="fill:#768e9d;fill-opacity:0.69;stroke:none;fill-rule:nonzero"/>
 </g>
</svg>
